X:1
T:Title
%%score { ( 1 3 ) | ( 2 4 ) }
L:1/8
M:4/4
K:Eb
V:1 treble nm="Grand Piano"
V:3 treble 
V:2 bass 
V:4 bass 
V:1
 z4 z[Q:1/4=100] EEF | G2 B2 G2 E2 | F2 E2- EEG[FA] | [GB]2 [GB]2 [EAc]2 [EAc]2 | %4
[M:5/8] [EGB]-[EGB]- [EGB]3 |[M:3/8] [B,EG][B,FA][B,EG] |[M:4/4] [DF]2 [DF]2 [B,DB]2 [B,DF]2 | %7
 [B,EG]2 [EGB]2- [EGB][B,GB][B,GB][B,_GB] | [Fd]2 [Ge]2 dd c2 |[M:5/8] [DB]-[DB]- [DB]3 | %10
[M:3/8] [AB][AB][AB] |[M:4/4] [Ge]2 [Ae]2 [Ge][Bd] [Ac]2 | [GB] [GB]2 [GB] G4 | A A2 A z2 A,2 | %14
[M:5/8] B B2 BG |[M:3/8] BBB |[M:4/4] [Ge]2 [Ae]2 [Ge][Bd] [Ac]2 | [GB] [GB]2 [GB] G3 B | %18
 c e3 e2 [Ad]2 |[M:5/8] [Ge]-[Ge]- [Ge]3 |] %20
V:2
 z4 z [E,G,B,][E,G,B,][E,A,B,] | [E,B,E]2 [E,G,E]2 [E,B,E]2 [E,G,]2 | %2
 [B,,A,B,]2 [E,G,B,]2- [E,G,B,][E,G,B,][E,B,E][E,B,] | [E,E]2 [E,E]2 A,2 A,2 |[M:5/8] E,-E,- E,3 | %5
[M:3/8] E,D,E, |[M:4/4] B,2 B,2 B,,2 B,,2 | E,2 E,2- E,E,E,E, | %8
 [F,B,]2 [F,B,]2 [F,B,F][F,B,F] [F,=A,E]2 |[M:5/8] [B,,B,]-[B,,B,]- [B,,B,]3 | %10
[M:3/8] [B,,B,][B,,B,][B,,B,] |[M:4/4] [E,B,]2 [E,C]2 [E,B,][E,E] [E,E]2 | %12
 [E,E] [E,E]2 [E,E] [E,B,E]4 | [F,B,D] [F,B,D]2 [F,B,D] B,2 z2 | %14
[M:5/8] [E,G,E] [E,G,E]2 [E,G,E][E,B,E] |[M:3/8] B,B,B, | %16
[M:4/4] [E,B,]2 [E,C]2 [E,B,][E,E] [E,E]2 | [E,E] [E,E]2 [E,E] [E,B,E]3[K:treble] [G,B,E] | %18
 [A,E] [A,CA]3 [B,G]2[K:bass] [B,,B,]2 |[M:5/8] [E,B,]-[E,B,]- [E,B,]3 |] %20
V:3
 x8 | x8 | x8 | x8 |[M:5/8] x5 |[M:3/8] x3 |[M:4/4] x8 | x8 | x8 |[M:5/8] x5 |[M:3/8] x3 | %11
[M:4/4] x8 | x8 | z4 [DF]4 |[M:5/8] x5 |[M:3/8] x3 |[M:4/4] x8 | x8 | x8 |[M:5/8] x5 |] %20
V:4
 x8 | x8 | x8 | x8 |[M:5/8] x5 |[M:3/8] x3 |[M:4/4] x8 | x8 | x8 |[M:5/8] x5 |[M:3/8] x3 | %11
[M:4/4] x8 | x8 | z4 B,,4 |[M:5/8] x5 |[M:3/8] x3 |[M:4/4] x8 | x7[K:treble] x | x6[K:bass] x2 | %19
[M:5/8] x5 |] %20

